src/assets/images/projects/dark-remnants-podcast/hero-logo.svg

<svg width="700" height="300" xmlns="http://www.w3.org/2000/svg"><g stroke="#FFF" stroke-width="2" fill="none" fill-rule="evenodd" opacity=".8"><path d="M84.256 171.274v-47.147s20.828 4.628 21.327 23.561c.499 18.933-20.379 22.002-29.483 22.002m13.793-2.178v-34.6m22.127 38.404l10.656-43.859 10.783 43.859m-21.941-25.605h14.97m-15.071 5.723h16.45M138.082 171.227v-47.978s20.488-.274 21.018 23.864l-19.681.05s22.027 11.397 22.532 29.414m-18.419-5.325V149.9M166.905 171.003v-47.978m21.01 0s-.049 23.989-21.01 23.989m21.993 29.862s-.958-30.011-21.92-30.011m4.276-7.939v16.598M269.107 169.89v-44.474s10.53 14.038 10.53 44.473m.001.025V125.44s10.53 14.038 10.53 44.474m5.249.999v-46.617s20.194 14.7 20.194 46.593m0 .024v-46.617m66.165 45.869v-46.75m-8.723-.097h17.421m27.407 10.582s-3.61-10.9-20.71-10.9v23.213l20.71-.322s2.955 26.533-20.589 26.533m-184.068-1.559v-47.84s20.245-.273 20.769 23.783l-19.447.05s21.766 11.359 22.264 29.314m-18.2-5.307v-21.279M262.811 170.262h-21.184v-47.067h21.184m-9.787 22.349h-11.397m21.184 19.1h-21.184M321.127 171.127l10.53-43.734 10.655 43.734m-21.681-25.542h14.792m-14.916 5.703h16.28M347.988 170.815v-46.593s20.194 14.7 20.194 46.593m0 0v-46.593"/><g transform="translate(436 123)"><ellipse cx="45.578" cy="24.954" rx="10.433" ry="23.869"/><path d="M109.826 30.403c-1.268 9.996-5.372 17.335-10.222 17.335-5.87 0-10.645-10.68-10.645-23.87C88.96 10.679 93.71 0 99.604 0c4.378 0 8.133 5.949 9.775 14.458m55.235-2.853s-3.806-10.52-21.84-10.52v22.424l21.84-.321s3.116 25.634-21.712 25.634M7.27 47.96V.073s21.145-.296 21.145 23.795H.173m27.846-5.448H.173m44.856-3.23v16.273m17.046 16.101V1.207s20.65 4.553 21.144 23.178c.494 18.626-20.205 21.645-29.231 21.645m13.676-2.167V9.826M116.083 47.728l10.848-43.17 11 43.17m-22.358-25.213h15.263m-15.366 5.63h16.77M177.983 47.738V.247m-8.752-.074h17.504"/></g></g></svg>

<svg width="700" height="300" xmlns="http://www.w3.org/2000/svg"><g stroke="#FFF" stroke-width="2" fill="none" fill-rule="evenodd" opacity=".8"><path d="M84.256 171.274v-47.147s20.828 4.628 21.327 23.561c.499 18.933-20.379 22.002-29.483 22.002M89.893 167.512v-34.6M112.02 171.316l10.656-43.859 10.783 43.859M111.518 145.711h14.97M111.417 151.434h16.45"/><g><path d="M138.082 171.227v-47.978s20.488-.274 21.018 23.864l-19.681.05s22.027 11.397 22.532 29.414M143.532 171.252V149.9"/></g><g><path d="M166.905 171.003v-47.978M187.915 123.025s-.049 23.989-21.01 23.989M188.898 176.876s-.958-30.011-21.92-30.011M171.254 138.926v16.598"/></g><g><path d="M269.107 169.89v-44.474s10.53 14.038 10.53 44.473M279.638 169.914V125.44s10.53 14.038 10.53 44.474M295.417 170.913v-46.617s20.194 14.7 20.194 46.593M315.611 170.913v-46.617M381.776 170.165v-46.75M373.053 123.318h17.421M417.881 133.9s-3.61-10.9-20.71-10.9v23.213l20.71-.322s2.955 26.533-20.589 26.533M213.224 170.865v-47.84s20.245-.273 20.769 23.783l-19.447.05s21.766 11.359 22.264 29.314M218.61 170.865v-21.279"/><g><path d="M262.811 170.262h-21.184v-47.067h21.184M253.024 145.544h-11.397M262.811 164.644h-21.184"/></g><g><path d="M321.127 171.127l10.53-43.734 10.655 43.734M320.631 145.585h14.792M320.507 151.288h16.28"/></g><g><path d="M347.988 170.815v-46.593s20.194 14.7 20.194 46.593M368.182 170.815v-46.593"/></g></g><g transform="translate(436 123)"><ellipse cx="45.578" cy="24.954" rx="10.433" ry="23.869"/><path d="M109.826 30.403c-1.268 9.996-5.372 17.335-10.222 17.335-5.87 0-10.645-10.68-10.645-23.87C88.96 10.679 93.71 0 99.604 0c4.378 0 8.133 5.949 9.775 14.458M164.614 11.605s-3.806-10.52-21.84-10.52v22.424l21.84-.321s3.116 25.634-21.712 25.634M7.27 47.96V.073s21.145-.296 21.145 23.795H.173M28.019 18.42H.173M45.029 15.19v16.273M62.075 47.564V1.207s20.65 4.553 21.144 23.178c.494 18.626-20.205 21.645-29.231 21.645M67.664 43.863V9.826"/><g><path d="M116.083 47.728l10.848-43.17 11 43.17M115.573 22.515h15.263M115.47 28.145h16.77"/></g><g><path d="M177.983 47.738V.247M169.231.173h17.504"/></g></g></g></svg>
